!!!OTL: Pfeifchen, wer hat dich erfunden (1-35), S. 92
!!!id: K1083
**kern
*clefG2
*k[f#c#]
*D:
{8d
8f#
=1
4a
4a
4a
8f#
8g
=2
2a
8f#}
8r
=3
{8b
8a
=4
4.g
8g
4g
8a
8g
=5
4f#
4d
4d}
=6
{8d
8f#
=7
4a
4a
4b
4cc#
=8
2dd
4a}
=9
{8b
8a
=10
4g
8b
8a
8g
8e
8d
8d
=11
4d
4d
4d}
==
*-
!!!minrhy: 8
!!!meters: 4/4 ]  ZZ[4
!!!cut: Pfeifchen, wer hat dich erfunden (1-35), S. 92
!!!reg: Luxemburg
!!!trd: KINTZELE, Guillaume: An der Ucht, Bd. 1, Luxemburg 1926
!!!rhy1: XX  X_X_X_XX  X__X0
!!!rhy2: XX  X_.XX_XX  X_X_X_
!!!key: K1083  08  D 4/4 ]  ZZ[4
!!!mod: HEPTATONIK IONISCH]  AMBITUS[8
!!!kad: 3151
!!!akz: 5553_4431_56+15_4411_
!!!fot: 'a__b__c__bw_
!!!for: 'a__b__c__d__
!!!fok: '^a_\__^a_\__
!! PHRAS[AUFTAKTIG]
!!!fkt: Loblied?
!!!bem: in der Quelle mit einer 2. Stimme versehen
!! KINTZELE
!! PR[13] 2K[2] 2G[16] 3K[5] 3G[5] 4A[5] 4Ü[0] 5A[2] 6K[0] 6G[2]
!! 7K[0] 7G[0] 8A[0] MEHR[0] SI[37] ABS[87] SR[18] SP[18]
!! ST[24] 2k[2] 2g[32] 3k[11] 3g[2] 4d[0] 4ü[0] 5d[2] 6k[0] 6g[0]
!! 7k[0] 7g[0] 8d[0] mehr[0] si[51] dm[-14] sr[34] sp[16]
!! 1F[68] 2F[13] 3F[2] 4F[0] LF[0] 2P[17] 3P[0] 4P[0] TRI[0] DF[4] AB[94]
!! TF[0] U3K[0] U3[0] U4[0] U4Ü[0] U5[0] U6K[0] U6[0] U7K[0] U7[0]
!! N1[25] N2K[0] N2[18] N3K[0] N3[20] N4[11] N4Ü[0] N5[16] N6K[0] N6[9]
!!!n7k: 0] N7[0] O1[0] O2K[0] O2[0] O3K[0] O3[0] HÖ[0
